!!!!SEGMENT: pl-kk--kk-i-382--043-006_singenberger-johann-baptist--msza-na-czesc-sw-stanislawa-agnus-dei.krn
!!!cenid: 18xx:1542
!!!COM: Singenberger, Johann Baptist
!!!COM-rismid: pe30008527
!!!CDT: 1848-1924
!!!CNT:
!!!OPR: Msza na cześć św. Stanisława
!!!OTL: Agnus Dei
!!!OMV: 006
!!!PDT:
!!!AGN: Sacred; Mass
!!!SMS-siglum: PL-Kk
!!!SMS-shelfmark: Kk.I.382
!!!SMS-shelfwork: 029-006 M
!!!SMS-variant:
!!!SMS-altvar:
!!!NIFC-rismid: 1001140237
!!!URL-scan: http://repozytorium.nifc.pl/skany/pl-kk-nut--i-382
!!!ONB-nifc: UWAGA: obsada: S/T 1. Skan 0034-0035,0138, 0286 (Agnus). Osobne części Mszy: Kyrie, Gloria, Credo, Sanctus, Benedictus, Agnus Dei
**kern	**text	**text	**dynam	**kern	**text	**dynam	**kern	**text	**text	**dynam
*part3	*part3	*part3	*part3	*part2	*part2	*part2	*part1	*part1	*part1	*part1
*staff3	*staff3	*staff3	*	*staff2	*staff2	*	*staff1	*staff1	*staff1	*
*Ibass	*	*	*	*Itenor	*	*	*Itenor	*	*	*
*I"Basso	*	*	*	*I"Tenore II	*	*	*I"Tenore I	*	*	*
*I'B	*	*	*	*I'T 2	*	*	*I'T 1	*	*	*
*clefF4	*	*	*	*clefG2	*	*	*clefG2	*	*	*
*k[b-]	*	*	*	*k[b-]	*	*	*k[b-]	*	*	*
*F:	*	*	*	*F:	*	*	*F:	*	*	*
*M4/4	*	*	*	*M4/4	*	*	*M4/4	*	*	*
*met(c)	*	*	*	*met(c)	*	*	*met(c)	*	*	*
=1	=1	=1	=1	=1	=1	=1	=1	=1	=1	=1
*2\right	*	*	*	*	*	*	*	*	*	*
*	*	*	*	*	*	*	*^	*	*	*
*	*	*	*	*	*	*	*	*2\right	*	*	*
!	!	!	!	!	!	!	!LO:TX:a:t=Solo\nTenor IIgi	!	!	!	!
!LO:TX:a:t=Solo	!	!	!	!LO:TX:a:t=Solo	!	!	!	!	!	!	!
!LO:TX:rj:a:B:t=Moderato	!	!	!	!LO:TX:rj:a:B:t=Moderato	!	!	!LO:TX:t=P:problem:partia zapisana na stronie 0068	!	!	!	!
!LO:TX:t=P:problem:partia zapisana na stronie 0286	!	!	!LO:DY:rj	!LO:TX:t=P:problem:partia zapisana na stronie 0138	!	!LO:DY:rj:b	!LO:TX:rj:a:B:t=Moderato	!	!	!	!LO:DY:rj:b
(2F\	a-	.	p	(2f/	a-	p	1r	(2f\	a-	.	p
4E\)	.	.	.	4g/)	.	.	.	4g\)	.	.	.
4C/	-gnus	.	.	4a/	-gnus	.	.	4a\	-gnus	.	.
=2	=2	=2	=2	=2	=2	=2	=2	=2	=2	=2	=2
*	*	*	*	*2\right	*	*	*	*	*	*	*
(4D\	De-	.	.	2b-\	De-	.	1r	2b-\	De-	.	.
4E\)	.	.	.	.	.	.	.	.	.	.	.
4F\	-i	.	.	4a/	-i	.	.	4a\	-i	.	.
4F\	qui	.	.	4a/	qui	.	.	4a\	qui	.	.
=3	=3	=3	=3	=3	=3	=3	=3	=3	=3	=3	=3
2E\	tol-	.	.	2g/	tol-	.	1r	2g\	tol-	.	.
4F\	-lis	.	.	4a/	-lis	.	.	4a\	-lis	.	.
4C/	pec-	.	.	4a/	pec-	.	.	4a\	pec-	.	.
=4	=4	=4	=4	=4	=4	=4	=4	=4	=4	=4	=4
(4D\	-ca-	.	.	2f/	-ca-	.	1r	2f\	-ca-	.	.
2F\)	.	.	.	.	.	.	.	.	.	.	.
.	.	.	.	2g/	-ta	.	.	2g\	-ta	.	.
4E\	-ta	.	.	.	.	.	.	.	.	.	.
=5	=5	=5	=5	=5	=5	=5	=5	=5	=5	=5	=5
2F\	mun-	.	.	2a/	mun-	.	1r	2a\	mun-	.	.
2E\	-di	.	.	2g/	-di	.	.	2g\	-di	.	.
*	*	*	*	*	*	*	*v	*v	*	*	*
!LO:LB:g=original	!	!	!	!LO:LB:g=original	!	!	!LO:LB:g=original	!	!	!
=6	=6	=6	=6	=6	=6	=6	=6	=6	=6	=6
!	!	!	!LO:DY:rj:b	!	!	!LO:DY:rj:b	!LO:TX:rj:a:t=Tenor Iem	!	!	!LO:DY:rj:b
2.F\	do-	mi-	pp	2.a/	mi-	pp	2.cc\	do-	mi-	pp
4F\	-na	-se-	.	4a/	-se-	.	4cc\	-na	-se-	.
=7	=7	=7	=7	=7	=7	=7	=7	=7	=7	=7
!LO:TX:a:t=P:problem:all 2/left	!	!	!	!	!	!	!	!	!	!
2BB-/	e-	-re-	.	(<2b-\	-re-	.	2.dd\	e-	-re-	.
2BB-/	-i	-re	.	4a/)	.	.	.	.	.	.
.	.	.	.	4g/	-re	.	4dd\	-is	-re	.
=8	=8	=8	=8	=8	=8	=8	=8	=8	=8	=8
!	!	!	!	!	!	!	!	!	!	!LO:DY:a
(2F\	re-	no-	.	(2a/	no-	.	1cc\	requi-	no-	>]
4E\	.	.	.	4g/	.	.	.	.	.	.
4D\)	-qui-	.	.	4f/)	.	.	.	.	.	.
=9	=9	=9	=9	=9	=9	=9	=9	=9	=9	=9
!	!	!	!	!	!	!	!LO:TX:t=P:problem:znak repetycji w połowie taktu dopisany ołówkiem	!	!	!
2.E\	-em	-bis	.	2.g/	-bis	.	2cc\	-em-	-bis	.
!	!	!	!	!	!	!	!	!	!	!LO:DY:a
.	.	.	.	.	.	.	.	.	.	mf
.	.	.	.	.	.	.	[2cc\	.	A-	.
!LO:SIC:t:v=znak repetycji dopisany ołówkiem	!	!	!	!LO:TX:t=P:problem:znak repetycji przed pauzą dopisany ołówkiem	!	!	!	!	!	!
4r	.	.	.	4r	.	.	.	.	.	.
=10	=10	=10	=10	=10	=10	=10	=10	=10	=10	=10
!	!	!	!LO:DY:rj:a	!	!	!LO:DY:rj:a	!	!	!	!
2F\	a-	.	mf	2a/	a-	mf	2cc\]	.	.	.
2F\	-gnus	.	.	2a/	-gnus	.	2dd\	-gnus	.	.
=11	=11	=11	=11	=11	=11	=11	=11	=11	=11	=11
2E\	De-	.	.	2g#X/	De-	.	2ee\	De-	.	.
4A\	-i	.	.	4a/	-i	.	4cc\	-i	.	.
4A\	qui	.	.	4a/	qui	.	4cc\	qui	.	.
!	!	!	!	!LO:LB:g=original	!	!	!	!	!	!
=12	=12	=12	=12	=12	=12	=12	=12	=12	=12	=12
2G\	tol-	.	.	2bn\	tol-	.	2dd\	tol-	.	.
4E\	-lis	.	.	4cc\	-lis	.	4ee\	-lis	.	.
4C/	pec-	.	.	4cc\	pec-	.	4ee\	pec-	.	.
!LO:LB:g=original	!	!	!	!	!	!	!	!	!	!
=13	=13	=13	=13	=13	=13	=13	=13	=13	=13	=13
2D\	-ca-	.	.	8f/L	-ca-	.	2.ff\	-ca-	.	.
.	.	.	.	8g/	.	.	.	.	.	.
.	.	.	.	8a/	.	.	.	.	.	.
.	.	.	.	8bn/J	.	.	.	.	.	.
8C/L	-ta	.	.	2cc\	-ta	.	.	.	.	.
8D/	.	.	.	.	.	.	.	.	.	.
8E/	.	.	.	.	.	.	4ee\	-ta	.	.
8F/J	.	.	.	.	.	.	.	.	.	.
!	!	!	!	!	!	!	!LO:LB:g=original	!	!	!
=14	=14	=14	=14	=14	=14	=14	=14	=14	=14	=14
1G\	mun-	.	.	(8cc\L	mun-	.	1dd\	mun-	.	.
.	.	.	.	8bn\	.	.	.	.	.	.
.	.	.	.	8a\	.	.	.	.	.	.
.	.	.	.	8g\J	.	.	.	.	.	.
.	.	.	.	4a/	.	.	.	.	.	.
.	.	.	.	4b\)	.	.	.	.	.	.
=15	=15	=15	=15	=15	=15	=15	=15	=15	=15	=15
2C/	-di	.	.	2cc\	-di	.	2ee\	-di	.	.
!	!	!	!LO:DY:a	!	!	!LO:DY:b	!	!	!	!LO:DY:b
.	.	.	pp	.	.	pp	.	.	.	pp
[2F\	do-	mi-	.	[2a/	mi-	.	[2cc\	mi-	.	.
=16	=16	=16	=16	=16	=16	=16	=16	=16	=16	=16
4F\]	.	.	.	4a/]	.	.	4cc\]	.	.	.
4F\	-na	-se-	.	4a/	-se-	.	4cc\	-se-	.	.
4F\	e-	-re-	.	4a/	-re-	.	4cc\	-re-	.	.
4F\	-is	-re	.	4a/	-re	.	4cc\	-re	.	.
!	!	!	!	!LO:LB:g=original	!	!	!	!	!	!
=17	=17	=17	=17	=17	=17	=17	=17	=17	=17	=17
(2.BB-/	re-	no-	.	([<1b-\	no-	.	[(1dd\	no-	.	.
4D\)	.	.	.	.	.	.	.	.	.	.
=18	=18	=18	=18	=18	=18	=18	=18	=18	=18	=18
2F\	-qui-	.	.	4b-/]	.	.	4dd\]	.	.	.
.	.	.	.	8a/L	.	.	8cc\L	.	.	.
.	.	.	.	8g/J)	.	.	8b-\J)	.	.	.
2F;\	-em	-bis	.	2a;/	-bis	.	2cc;\	-bis	.	.
=19	=19	=19	=19	=19	=19	=19	=19	=19	=19	=19
!	!	!	!LO:DY:rj	!	!	!LO:DY:rj:b	!	!	!	!LO:DY:rj:a
2.BB-/	a-	.	f	2.b-\	a-	f	2.dd\	a-	.	f
4BB-/	-gnus	.	.	4b-\	-gnus	.	4dd\	-gnus	.	.
!LO:LB:g=original	!	!	!	!	!	!	!	!	!	!
=20	=20	=20	=20	=20	=20	=20	=20	=20	=20	=20
1F\	De-	.	.	(<2b-\	De-	.	1cc\	De-	.	.
.	.	.	.	2a/)	.	.	.	.	.	.
=21	=21	=21	=21	=21	=21	=21	=21	=21	=21	=21
4BB-/	-i	.	.	4b-\	-i	.	4dd\	-i	.	.
4B-\	qui	.	.	4b-\	qui	.	4dd\	qui	.	.
!	!	!	!	!	!	!	!LO:LB:g=original	!	!	!
4G\	tol-	.	.	4b-\	tol-	.	4dd\	tol-	.	.
8G\	-lis	.	.	8b-/	-lis	.	8dd\	-lis	.	.
8F\	pec-	.	.	8a/	pec-	.	8dd\	pec-	.	.
=22	=22	=22	=22	=22	=22	=22	=22	=22	=22	=22
4E\	-ca-	.	.	4g/	-ca-	.	4cc\	-ca-	.	.
4F\	-ta	.	.	4a/	-ta	.	4cc\	-ta	.	.
(4AA/	mun-	.	.	(>4f/	mun-	.	(<4cc\	mun-	.	.
4BB-/)	.	.	.	4d/)	.	.	8b-/L	.	.	.
.	.	.	.	.	.	.	8a/J)	.	.	.
=23	=23	=23	=23	=23	=23	=23	=23	=23	=23	=23
2.C/	-di	.	.	2.e/	-di	.	2.g/	-di	.	.
4r	.	.	.	4r	.	.	4r	.	.	.
!	!	!	!	!LO:LB:g=original	!	!	!	!	!	!
=24	=24	=24	=24	=24	=24	=24	=24	=24	=24	=24
!	!	!	!LO:DY:rj:b	!	!	!	!	!	!	!LO:DY:rj:b
2F\	do-	.	p	2f/	do-	p	2.a/	do-	.	p
2D\	-na	.	.	2f/	-na	.	.	.	.	.
.	.	.	.	.	.	.	4b-/	-na	.	.
=25	=25	=25	=25	=25	=25	=25	=25	=25	=25	=25
2C/	e-	no-	.	2f/	no-	.	2cc\	no-	.	.
2C/	-is	-bis	.	2e/	-bis	.	2cc\	-bis	.	.
!LO:LB:g=original	!	!	!	!	!	!	!	!	!	!
=26	=26	=26	=26	=26	=26	=26	=26	=26	=26	=26
4.BB-/	re-	pa-	.	(<(>2f/	pa-	.	(4.dd\	pa-	.	.
8C/	.	.	.	.	.	.	8ee\	.	.	.
4D\	.	.	.	2b-\)	.	.	4ff\	.	.	.
4E\	-qui-	.	.	.	.	.	4gg\)	.	.	.
!	!	!	!	!	!	!	!LO:LB:g=original	!	!	!
=27	=27	=27	=27	=27	=27	=27	=27	=27	=27	=27
1F\	-em	-cem	.	2b-\)	.	.	1cc\	-cem	.	.
.	.	.	.	2a/	-cem	.	.	.	.	.
=28	=28	=28	=28	=28	=28	=28	=28	=28	=28	=28
2D\	do-	.	.	4r	.	.	2ff\	do-	.	.
.	.	.	.	(4f/	do-	.	.	.	.	.
2C/	-na	.	.	4g/)	.	.	2ee\	-na	.	.
.	.	.	.	4a/	-na	.	.	.	.	.
=29	=29	=29	=29	=29	=29	=29	=29	=29	=29	=29
2BB-/	e-	no-	.	2b-\	no-	.	2dd\	no-	.	.
2F\	-is	-bis	.	2a/	-bis	.	2cc\	-bis	.	.
=30	=30	=30	=30	=30	=30	=30	=30	=30	=30	=30
(4E\	re-	pa-	.	(4g/	pa-	.	1cc\	pa-	.	>
2F\)	.	.	.	4a/	.	.	.	.	.	.
.	.	.	.	2g/)	.	.	.	.	.	.
4E\	-qui-	.	.	.	.	.	.	.	.	]
!	!	!	!	!LO:LB:g=original	!	!	!	!	!	!
=31	=31	=31	=31	=31	=31	=31	=31	=31	=31	=31
2F\	-em	-cem	.	2a/	-cem	.	2cc\	-cem	.	<
!	!	!	!	!	!	!LO:DY:b	!	!	!	!
.	.	.	.	.	.	pp	.	.	.	.
2r	.	.	.	4f/	do-	.	2r	.	.	.
.	.	.	.	4f/	-na	.	.	.	.	[
=32	=32	=32	=32	=32	=32	=32	=32	=32	=32	=32
!	!	!	!LO:DY:rj:b	!	!	!	!	!	!	!LO:DY:b
1BB-/	requi-	pa-	pp	(<4f/	pa-	.	1dd\	.	.	pp
.	.	.	.	8g/L	.	.	.	.	.	.
.	.	.	.	8a/J	.	.	.	.	.	.
.	.	.	.	2b-\)	.	.	.	.	.	.
=33	=33	=33	=33	=33	=33	=33	=33	=33	=33	=33
!	!	!	!LO:DY:rj:b	!	!	!LO:DY:rj:b	!	!	!	!LO:DY:a
1F\;	-em	-cem	ppp	1a/;	-cem	ppp	1cc\	.	.	>]
==	==	==	==	==	==	==	==	==	==	==
*-	*-	*-	*-	*-	*-	*-	*-	*-	*-	*-
!!!system-decoration: [(s1,s2,s3)]
!!!RDF**kern: > = above
!!!RDF**kern: < = below
!!!EED: Leszek Kubiak
!!!EST: 2021-02-09
!!!AIN: 1 bass 2 tenor
!!!ENC: Tomasz Grochalski
!!!END: 2021-01-30
